X: 35203
T: Rorey
R: waltz
M: 3/4
K: Dmajor
d2 dd dd|f2 AA AA|d2 FF FF|A2 DD DD|ED EF GA|BA Bc de|gf ed cB|AB cd ef|
d2 dd dd|f2 AA AA|d2 FF FF|A2 DD DD|ED EF GA|BA GF GE|DF Ad f2|e4 d2||
A2 BA ^GA|B6|A2 BA ^GA|f6|ef g4|E4 FG|dc d4|D4 EF|
A2 BA ^GA|B6|A2 BA ^GA|f6|f2 ef ef|a4 c|e2 d2 d2|d4 de||
f2 fg fg|f2 fg fg|fd Bc de|fd Bc de|fe fd cd|fe fd Ad|
fe de fd|g6|fe de fd|a6|gf ed cB|BA GF GE|DF Ad f2|e2 d4||

